X:1
L:1/8
Q:3/8=128
M:6/8
K:C
 d | c/d<ed/ c2 A | GEG A2 G | c/d<ed/ c2 G | AGG G2 d | c/d<ed/ c2 A | GEG A2 a | gec A2 G | 
 GAB c2 || G | E2 G c2 G | TA2 G c2 G | E2 G c2 G | TAGG G2 d | c/d<ed/ c2 A | GEG A2 a | 
 gec A2 G | GAB c2 |]
